X: 26945
T: Miss Cameron Of Balvenie
R: reel
M: 4/4
K: Cdorian
dB (3BBBB2FB|ABcd egfe|dB (3BBBB2FB|1 ABcAB2Bc:|2 ABcAB2FE||
DBFB DBFB|EBGB EBGB|ABce gfec|edcB BAFE|
DBFB DBFB|EBGB EBGB|Abag fedB|FBcAB2Be||

